images/social_insta.svg

<svg xmlns="http://www.w3.org/2000/svg" viewBox="65 -446.1 68.3 68.3" enable-background="new 65 -446.1 68.3 68.3"><style type="text/css">.st0{fill:none;stroke:#21657C;stroke-width:3;stroke-miterlimit:10;} .st1{fill:none;stroke:#21657C;stroke-width:2.7737;stroke-miterlimit:10;} .st2{fill:#21657C;}</style><circle class="st0" cx="99.2" cy="-412" r="32.7"/><path class="st2" d="M113.7-428h-29.1c-.8 0-1.4.6-1.4 1.4v29.1c0 .8.6 1.4 1.4 1.4h29.1c.8 0 1.4-.6 1.4-1.4v-29.1c.1-.7-.6-1.4-1.4-1.4zm-8.9 16c0 3.1-2.5 5.6-5.6 5.6s-5.6-2.5-5.6-5.6c0-3.1 2.5-5.6 5.6-5.6s5.6 2.5 5.6 5.6zm6.4 12h-24v-14h2.6c-.1.6-.2 1.3-.2 2 0 5.3 4.3 9.6 9.6 9.6s9.6-4.3 9.6-9.6c0-.7-.1-1.4-.2-2h2.6v14zm0-18h-6v-6h6v6z"/></svg>

<?xml version="1.0" encoding="utf-8"?>
<!-- Generator: Adobe Illustrator 19.1.0, SVG Export Plug-In . SVG Version: 6.00 Build 0)  -->
<svg version="1.1" id="Layer_1" xmlns="http://www.w3.org/2000/svg" xmlns:xlink="http://www.w3.org/1999/xlink" x="0px" y="0px"
	 viewBox="65 -446.1 68.3 68.3" style="enable-background:new 65 -446.1 68.3 68.3;" xml:space="preserve">
<style type="text/css">
	.st0{fill:none;stroke:#21657C;stroke-width:3;stroke-miterlimit:10;}
	.st1{fill:none;stroke:#21657C;stroke-width:2.7737;stroke-miterlimit:10;}
	.st2{fill:#21657C;}
</style>
<g>
	<circle class="st0" cx="99.2" cy="-412" r="32.7"/>
	<g>
		<path class="st2" d="M113.7-428H84.6c-0.8,0-1.4,0.6-1.4,1.4v29.1c0,0.8,0.6,1.4,1.4,1.4h29.1c0.8,0,1.4-0.6,1.4-1.4v-29.1
			C115.2-427.3,114.5-428,113.7-428z M104.8-412c0,3.1-2.5,5.6-5.6,5.6s-5.6-2.5-5.6-5.6c0-3.1,2.5-5.6,5.6-5.6
			S104.8-415.1,104.8-412z M111.2-400h-24v-14h2.6c-0.1,0.6-0.2,1.3-0.2,2c0,5.3,4.3,9.6,9.6,9.6c5.3,0,9.6-4.3,9.6-9.6
			c0-0.7-0.1-1.4-0.2-2h2.6V-400z M111.2-418h-6v-6h6V-418z"/>
	</g>
</g>
</svg>
